X:61
%%etbk:tnset id:21,pos:1,rep:3x,ant:
%%etbk:wsite http://www.thesession.org/tunes/display/632
%%etbk:color #ffe6e6
%%etbk:pldat 2015-12-22T17:34,2014-12-07T13:31,2014-05-07T16:05,2014-04-02T17:59,2014-03-23T15:38,2014-02-08T14:48,2014-02-06T18:16,2013-12-11T17:15,2013-12-04T18:21,2013-05-15T15:53,2013-05-07T19:51
T: Skylark, The
Z: Piano Box Version by Martin Fleischmann
H: Created 2013-02-19 /  Last Modified 2014-12-07
M: 4/4
L: 1/8
R: reel
K:Dmaj
|: !5!agfg !2!ef!1!d!2!B  | !1!A!2!FFF !1!D!2!F!3!A!5!d | !4!B!2!GGG !1!EFGE | !2!F!3!A!2!A!3!A !4!B!1!A !3!(3A!2!A!1!A |
!5!agfg !2!ef!1!d!2!B | !1!A!2!FFF !1!DFA!5!d | !4!B!1!GG!2!F !1!G2!5!ag | !3!faeg !3!f!1!dd2:||
|: !5!a2 !3!f!2!d !1!A!3!d!5!f!3!d | !4!efed cAA2 | !4!a2 !2!fa !5!b!3!g!1!e!2!d | !1!B!3!e!2!e!1!d !2!efge |
| !3!fffa !4!ggge | !3!f2ef !1!d!2!B!1!A!3!G | !2!F2!3!A!2!F !1!G!2!B!5!e!4!d | !2!c!3!e!5!a!4!g !3!f!1!dd2:||


